Numix-Circle/48x48/apps/tomboy.svg

<?xml version="1.0" encoding="UTF-8" standalone="no"?>
<svg
   xmlns:dc="http://purl.org/dc/elements/1.1/"
   xmlns:cc="http://creativecommons.org/ns#"
   xmlns:rdf="http://www.w3.org/1999/02/22-rdf-syntax-ns#"
   xmlns:svg="http://www.w3.org/2000/svg"
   xmlns="http://www.w3.org/2000/svg"
   xmlns:xlink="http://www.w3.org/1999/xlink"
   xmlns:sodipodi="http://sodipodi.sourceforge.net/DTD/sodipodi-0.dtd"
   xmlns:inkscape="http://www.inkscape.org/namespaces/inkscape"
   viewBox="0 0 48 48"
   id="svg2"
   version="1.1"
   inkscape:version="0.48.4 r9939"
   width="100%"
   height="100%"
   sodipodi:docname="tomboy.svg">
  <metadata
     id="metadata100">
    <rdf:RDF>
      <cc:Work
         rdf:about="">
        <dc:format>image/svg+xml</dc:format>
        <dc:type
           rdf:resource="http://purl.org/dc/dcmitype/StillImage" />
      </cc:Work>
    </rdf:RDF>
  </metadata>
  <sodipodi:namedview
     pagecolor="#ffffff"
     bordercolor="#666666"
     borderopacity="1"
     objecttolerance="10"
     gridtolerance="10"
     guidetolerance="10"
     inkscape:pageopacity="0"
     inkscape:pageshadow="2"
     inkscape:window-width="640"
     inkscape:window-height="480"
     id="namedview98"
     showgrid="false"
     inkscape:zoom="4.9166667"
     inkscape:cx="28.954595"
     inkscape:cy="20.371412"
     inkscape:window-x="0"
     inkscape:window-y="0"
     inkscape:window-maximized="0"
     inkscape:current-layer="svg2" />
  <defs
     id="defs4">
    <linearGradient
       id="linearGradient3764"
       x1="1"
       x2="47"
       gradientUnits="userSpaceOnUse"
       gradientTransform="matrix(0,-1,1,0,-1.5e-6,47.999998)">
      <stop
         stop-color="#fff55d"
         stop-opacity="1"
         id="stop7" />
      <stop
         offset="1"
         stop-color="#fff772"
         stop-opacity="1"
         id="stop9" />
    </linearGradient>
    <clipPath
       id="clipPath-381403146">
      <g
         transform="translate(0,-1004.3622)"
         id="g12">
        <path
           d="m -24 13 c 0 1.105 -0.672 2 -1.5 2 -0.828 0 -1.5 -0.895 -1.5 -2 0 -1.105 0.672 -2 1.5 -2 0.828 0 1.5 0.895 1.5 2 z"
           transform="matrix(15.333333,0,0,11.5,414.99999,878.8622)"
           fill="#1890d0"
           id="path14" />
      </g>
    </clipPath>
    <clipPath
       id="clipPath-390444938">
      <g
         transform="translate(0,-1004.3622)"
         id="g17">
        <path
           d="m -24 13 c 0 1.105 -0.672 2 -1.5 2 -0.828 0 -1.5 -0.895 -1.5 -2 0 -1.105 0.672 -2 1.5 -2 0.828 0 1.5 0.895 1.5 2 z"
           transform="matrix(15.333333,0,0,11.5,414.99999,878.8622)"
           fill="#1890d0"
           id="path19" />
      </g>
    </clipPath>
    <linearGradient
       id="linear0"
       gradientUnits="userSpaceOnUse"
       y1="279.1"
       x2="0"
       y2="268.33"
       gradientTransform="matrix(6.776435,0,0,20.145321,-840.81144,-5436.4307)">
      <stop
         stop-color="#4d200a"
         stop-opacity="1"
         id="stop22" />
      <stop
         offset="1"
         stop-color="#853711"
         stop-opacity="1"
         id="stop24" />
    </linearGradient>
    <linearGradient
       id="linearGradient26"
       gradientUnits="userSpaceOnUse"
       y1="279.1"
       x2="0"
       y2="268.33"
       gradientTransform="matrix(6.776435,0,0,20.145321,-840.811444,-5436.430732)">
      <stop
         stop-color="#4d200a"
         stop-opacity="1"
         id="stop28" />
      <stop
         offset="1"
         stop-color="#853711"
         stop-opacity="1"
         id="stop30" />
    </linearGradient>
    <linearGradient
       inkscape:collect="always"
       xlink:href="#linear0"
       id="linearGradient3087"
       gradientUnits="userSpaceOnUse"
       gradientTransform="matrix(6.776435,0,0,20.145321,-840.81144,-5436.4307)"
       y1="279.1"
       x2="0"
       y2="268.33" />
    <linearGradient
       inkscape:collect="always"
       xlink:href="#linear0"
       id="linearGradient3098"
       gradientUnits="userSpaceOnUse"
       gradientTransform="matrix(6.776435,0,0,20.145321,-840.81144,-5436.4307)"
       y1="279.1"
       x2="0"
       y2="268.33" />
    <linearGradient
       inkscape:collect="always"
       xlink:href="#linear0"
       id="linearGradient3103"
       gradientUnits="userSpaceOnUse"
       gradientTransform="matrix(6.776435,0,0,20.145321,-840.81144,-5436.4307)"
       y1="279.1"
       x2="0"
       y2="268.33" />
    <linearGradient
       inkscape:collect="always"
       xlink:href="#linearGradient3764"
       id="linearGradient3143"
       gradientUnits="userSpaceOnUse"
       gradientTransform="matrix(0,-1,1,0,-1.5e-6,47.999998)"
       x1="1"
       x2="47" />
    <linearGradient
       inkscape:collect="always"
       xlink:href="#linearGradient3764"
       id="linearGradient3146"
       gradientUnits="userSpaceOnUse"
       gradientTransform="matrix(0,-1,1,0,-1.5e-6,47.999998)"
       x1="1"
       x2="47" />
    <linearGradient
       inkscape:collect="always"
       xlink:href="#linearGradient3764"
       id="linearGradient3296"
       gradientUnits="userSpaceOnUse"
       gradientTransform="matrix(0,-1,1,0,-1.5e-6,47.999998)"
       x1="1"
       x2="47" />
    <linearGradient
       inkscape:collect="always"
       xlink:href="#linearGradient3764"
       id="linearGradient3299"
       gradientUnits="userSpaceOnUse"
       gradientTransform="matrix(0,-1,1,0,-1.5e-6,47.999998)"
       x1="1"
       x2="47" />
    <linearGradient
       inkscape:collect="always"
       xlink:href="#linearGradient3764"
       id="linearGradient3308"
       gradientUnits="userSpaceOnUse"
       gradientTransform="matrix(0,-1,1,0,-1.5e-6,47.999998)"
       x1="1"
       x2="47" />
    <linearGradient
       inkscape:collect="always"
       xlink:href="#linearGradient3764"
       id="linearGradient3311"
       gradientUnits="userSpaceOnUse"
       gradientTransform="matrix(0,-1,1,0,-1.5e-6,47.999998)"
       x1="1"
       x2="47" />
    <linearGradient
       inkscape:collect="always"
       xlink:href="#linear0"
       id="linearGradient3320"
       gradientUnits="userSpaceOnUse"
       gradientTransform="matrix(6.776435,0,0,20.145321,-840.81144,-5436.4307)"
       y1="279.1"
       x2="0"
       y2="268.33" />
    <linearGradient
       inkscape:collect="always"
       xlink:href="#linearGradient3764"
       id="linearGradient3379"
       gradientUnits="userSpaceOnUse"
       gradientTransform="matrix(0,-1,1,0,-1.5e-6,47.999998)"
       x1="1"
       x2="47" />
    <linearGradient
       inkscape:collect="always"
       xlink:href="#linearGradient3764"
       id="linearGradient3382"
       gradientUnits="userSpaceOnUse"
       gradientTransform="matrix(0,-1,1,0,-1.5e-6,47.999998)"
       x1="1"
       x2="47" />
    <linearGradient
       inkscape:collect="always"
       xlink:href="#linear0"
       id="linearGradient3391"
       gradientUnits="userSpaceOnUse"
       gradientTransform="matrix(6.776435,0,0,20.145321,-840.81144,-5436.4307)"
       y1="279.1"
       x2="0"
       y2="268.33" />
    <linearGradient
       inkscape:collect="always"
       xlink:href="#linear0"
       id="linearGradient3402"
       gradientUnits="userSpaceOnUse"
       gradientTransform="matrix(6.776435,0,0,20.145321,-840.81144,-5436.4307)"
       y1="279.1"
       x2="0"
       y2="268.33" />
    <linearGradient
       inkscape:collect="always"
       xlink:href="#linear0"
       id="linearGradient3413"
       gradientUnits="userSpaceOnUse"
       gradientTransform="matrix(6.776435,0,0,20.145321,-840.81144,-5436.4307)"
       y1="279.1"
       x2="0"
       y2="268.33" />
    <linearGradient
       inkscape:collect="always"
       xlink:href="#linearGradient3764"
       id="linearGradient3415"
       gradientUnits="userSpaceOnUse"
       gradientTransform="matrix(0,-1,1,0,-1.5e-6,47.999998)"
       x1="1"
       x2="47" />
    <linearGradient
       inkscape:collect="always"
       xlink:href="#linearGradient3764"
       id="linearGradient3418"
       gradientUnits="userSpaceOnUse"
       gradientTransform="matrix(0,-1,1,0,-1.5e-6,47.999998)"
       x1="1"
       x2="47" />
  </defs>
  <g
     id="g32">
    <path
       d="m 36.31 5 c 5.859 4.062 9.688 10.831 9.688 18.5 c 0 12.426 -10.07 22.5 -22.5 22.5 c -7.669 0 -14.438 -3.828 -18.5 -9.688 c 1.037 1.822 2.306 3.499 3.781 4.969 c 4.085 3.712 9.514 5.969 15.469 5.969 c 12.703 0 23 -10.298 23 -23 c 0 -5.954 -2.256 -11.384 -5.969 -15.469 c -1.469 -1.475 -3.147 -2.744 -4.969 -3.781 z m 4.969 3.781 c 3.854 4.113 6.219 9.637 6.219 15.719 c 0 12.703 -10.297 23 -23 23 c -6.081 0 -11.606 -2.364 -15.719 -6.219 c 4.16 4.144 9.883 6.719 16.219 6.719 c 12.703 0 23 -10.298 23 -23 c 0 -6.335 -2.575 -12.06 -6.719 -16.219 z"
       opacity="0.05"
       id="path34" />
    <path
       d="m 41.28 8.781 c 3.712 4.085 5.969 9.514 5.969 15.469 c 0 12.703 -10.297 23 -23 23 c -5.954 0 -11.384 -2.256 -15.469 -5.969 c 4.113 3.854 9.637 6.219 15.719 6.219 c 12.703 0 23 -10.298 23 -23 c 0 -6.081 -2.364 -11.606 -6.219 -15.719 z"
       opacity="0.1"
       id="path36" />
    <path
       d="m 31.25 2.375 c 8.615 3.154 14.75 11.417 14.75 21.13 c 0 12.426 -10.07 22.5 -22.5 22.5 c -9.708 0 -17.971 -6.135 -21.12 -14.75 a 23 23 0 0 0 44.875 -7 a 23 23 0 0 0 -16 -21.875 z"
       opacity="0.2"
       id="path38" />
  </g>
  <path
     style="fill:url(#linearGradient3418);fill-opacity:1"
     d="m 5.84375,9.90625 c -3.8958333,25.395833 -1.9479167,12.697917 0,0 z m 36.3125,0 c -28.104167,25.395833 -14.052083,12.697917 0,0 z M 5.03125,11 C 2.4960998,14.696699 1,19.178707 1,24 1,36.703 11.297,47 24,47 36.703,47 47,36.703 47,24 47,19.178707 45.5039,14.696699 42.96875,11 z"
     id="path42"
     inkscape:connector-curvature="0"
     sodipodi:nodetypes="cccccssscc" />
  <g
     id="g44" />
  <path
     style="opacity:0.1;fill:#000000;fill-opacity:0.53299997;fill-rule:evenodd;stroke:none"
     d="M 5.03125 11 C 4.8056473 11.329015 4.5836737 11.658889 4.375 12 L 16 12 L 16 19 L 1.5625 19 C 1.488812 19.331674 1.4029449 19.663103 1.34375 20 L 16 20 L 16 24 L 1 24 C 1 24.334333 1.017128 24.669144 1.03125 25 L 16 25 L 16 29 L 1.5625 29 C 1.636162 29.33156 1.6934459 29.674001 1.78125 30 L 16 30 L 16 34 L 3.3125 34 C 3.4746898 34.335042 3.6347729 34.674262 3.8125 35 L 16 35 L 16 39 L 6.5625 39 C 6.8602558 39.345723 7.182486 39.672644 7.5 40 L 16 40 L 16 44 L 12.65625 44 C 13.298199 44.364488 13.977685 44.697403 14.65625 45 L 16 45 L 16 45.5625 C 16.33039 45.685114 16.662644 45.798583 17 45.90625 L 17 45 L 33.34375 45 C 34.022315 44.697403 34.701801 44.364488 35.34375 44 L 17 44 L 17 40 L 40.5 40 C 40.817514 39.672644 41.139744 39.345723 41.4375 39 L 17 39 L 17 35 L 44.1875 35 C 44.365227 34.674262 44.52531 34.335042 44.6875 34 L 17 34 L 17 30 L 46.21875 30 C 46.30655 29.674001 46.363838 29.33156 46.4375 29 L 17 29 L 17 25 L 46.96875 25 C 46.982872 24.669144 47 24.334333 47 24 L 17 24 L 17 20 L 46.65625 20 C 46.59705 19.663103 46.511188 19.331674 46.4375 19 L 17 19 L 17 12 L 43.625 12 C 43.416326 11.658889 43.194353 11.329015 42.96875 11 L 5.03125 11 z "
     id="path56" />
  <path
     style="fill:#3d95c1;fill-opacity:0.53299997;fill-rule:evenodd;stroke:none"
     d="M 1.78125 18 C 1.6934459 18.325999 1.6361623 18.66844 1.5625 19 L 46.4375 19 C 46.363838 18.66844 46.306554 18.325999 46.21875 18 L 1.78125 18 z M 1.03125 23 C 1.0171284 23.330856 1 23.665667 1 24 L 47 24 C 47 23.665667 46.982872 23.330856 46.96875 23 L 1.03125 23 z M 1.34375 28 C 1.4029449 28.336897 1.4888124 28.668326 1.5625 29 L 46.4375 29 C 46.511188 28.668326 46.597055 28.336897 46.65625 28 L 1.34375 28 z M 2.84375 33 C 2.9866932 33.335143 3.1543261 33.673253 3.3125 34 L 44.6875 34 C 44.845674 33.673253 45.013307 33.335143 45.15625 33 L 2.84375 33 z M 5.75 38 C 6.0104739 38.338709 6.2839587 38.676587 6.5625 39 L 41.4375 39 C 41.716041 38.676587 41.989526 38.338709 42.25 38 L 5.75 38 z M 11.03125 43 C 11.554648 43.357443 12.103024 43.685888 12.65625 44 L 35.34375 44 C 35.896976 43.685888 36.445352 43.357443 36.96875 43 L 11.03125 43 z "
     id="path78" />
  <path
     style="fill:url(#linearGradient3103);fill-rule:evenodd;stroke:none"
     d="M 24 1 C 16.118293 1 9.1756388 4.9567455 5.03125 11 L 42.96875 11 C 38.824361 4.9567455 31.881707 1 24 1 z "
     id="path88" />
  <path
     style="fill:#d64936;fill-opacity:0.53299997;fill-rule:evenodd;stroke:none"
     inkscape:connector-curvature="0"
     id="path92"
     d="m 15,11 0,36.996 0.996,0 0,-36.996 M 15,11" />
  <g
     id="g94">
    <path
       d="m 40.03 7.531 c 3.712 4.084 5.969 9.514 5.969 15.469 0 12.703 -10.297 23 -23 23 c -5.954 0 -11.384 -2.256 -15.469 -5.969 4.178 4.291 10.01 6.969 16.469 6.969 c 12.703 0 23 -10.298 23 -23 0 -6.462 -2.677 -12.291 -6.969 -16.469 z"
       opacity="0.1"
       id="path96" />
  </g>
</svg>

<svg xmlns="http://www.w3.org/2000/svg" viewBox="0 0 48 48"><defs><clipPath><g transform="translate(0,-1004.3622)"><path d="m -24 13 c 0 1.105 -0.672 2 -1.5 2 -0.828 0 -1.5 -0.895 -1.5 -2 0 -1.105 0.672 -2 1.5 -2 0.828 0 1.5 0.895 1.5 2 z" transform="matrix(15.333333,0,0,11.5,414.99999,878.8622)" fill="#1890d0"/></g></clipPath><clipPath><g transform="translate(0,-1004.3622)"><path d="m -24 13 c 0 1.105 -0.672 2 -1.5 2 -0.828 0 -1.5 -0.895 -1.5 -2 0 -1.105 0.672 -2 1.5 -2 0.828 0 1.5 0.895 1.5 2 z" transform="matrix(15.333333,0,0,11.5,414.99999,878.8622)" fill="#1890d0"/></g></clipPath><linearGradient id="linearGradient3103" gradientUnits="userSpaceOnUse" gradientTransform="matrix(6.776435,0,0,20.145321,-840.81144,-5436.4307)" y1="279.1" x2="0" y2="268.33"><stop stop-color="#4d200a" stop-opacity="1"/><stop offset="1" stop-color="#853711" stop-opacity="1"/></linearGradient><linearGradient id="linearGradient3418" gradientUnits="userSpaceOnUse" gradientTransform="matrix(0,-1,1,0,-1.5e-6,47.999998)" x1="1" x2="47"><stop stop-color="#fff55d" stop-opacity="1"/><stop offset="1" stop-color="#fff772" stop-opacity="1"/></linearGradient></defs><g><path d="m 36.31 5 c 5.859 4.062 9.688 10.831 9.688 18.5 c 0 12.426 -10.07 22.5 -22.5 22.5 c -7.669 0 -14.438 -3.828 -18.5 -9.688 c 1.037 1.822 2.306 3.499 3.781 4.969 c 4.085 3.712 9.514 5.969 15.469 5.969 c 12.703 0 23 -10.298 23 -23 c 0 -5.954 -2.256 -11.384 -5.969 -15.469 c -1.469 -1.475 -3.147 -2.744 -4.969 -3.781 z m 4.969 3.781 c 3.854 4.113 6.219 9.637 6.219 15.719 c 0 12.703 -10.297 23 -23 23 c -6.081 0 -11.606 -2.364 -15.719 -6.219 c 4.16 4.144 9.883 6.719 16.219 6.719 c 12.703 0 23 -10.298 23 -23 c 0 -6.335 -2.575 -12.06 -6.719 -16.219 z" opacity="0.05"/><path d="m 41.28 8.781 c 3.712 4.085 5.969 9.514 5.969 15.469 c 0 12.703 -10.297 23 -23 23 c -5.954 0 -11.384 -2.256 -15.469 -5.969 c 4.113 3.854 9.637 6.219 15.719 6.219 c 12.703 0 23 -10.298 23 -23 c 0 -6.081 -2.364 -11.606 -6.219 -15.719 z" opacity="0.1"/><path d="m 31.25 2.375 c 8.615 3.154 14.75 11.417 14.75 21.13 c 0 12.426 -10.07 22.5 -22.5 22.5 c -9.708 0 -17.971 -6.135 -21.12 -14.75 a 23 23 0 0 0 44.875 -7 a 23 23 0 0 0 -16 -21.875 z" opacity="0.2"/></g><path d="m 5.844 9.906 c -3.896 25.396 -1.948 12.698 0 0 z m 36.31 0 c -28.1 25.396 -14.05 12.698 0 0 z m -37.12 1.094 c -2.535 3.697 -4.03 8.179 -4.03 13 0 12.703 10.297 23 23 23 12.703 0 23 -10.297 23 -23 0 -4.821 -1.496 -9.303 -4.03 -13 z" fill="url(#linearGradient3418)" fill-opacity="1"/><path d="m 5.03 11 c -0.226 0.329 -0.448 0.659 -0.656 1 l 11.625 0 l 0 7 l -14.438 0 c -0.074 0.332 -0.16 0.663 -0.219 1 l 14.656 0 l 0 4 l -15 0 c 0 0.334 0.017 0.669 0.031 1 l 14.969 0 l 0 4 l -14.438 0 c 0.074 0.332 0.131 0.674 0.219 1 l 14.219 0 l 0 4 l -12.688 0 c 0.162 0.335 0.322 0.674 0.5 1 l 12.188 0 l 0 4 l -9.438 0 c 0.298 0.346 0.62 0.673 0.938 1 l 8.5 0 l 0 4 l -3.344 0 c 0.642 0.364 1.321 0.697 2 1 l 1.344 0 l 0 0.563 c 0.33 0.123 0.663 0.236 1 0.344 l 0 -0.906 l 16.344 0 c 0.679 -0.303 1.358 -0.636 2 -1 l -18.344 0 l 0 -4 l 23.5 0 c 0.318 -0.327 0.64 -0.654 0.938 -1 l -24.438 0 l 0 -4 l 27.19 0 c 0.178 -0.326 0.338 -0.665 0.5 -1 l -27.688 0 l 0 -4 l 29.22 0 c 0.088 -0.326 0.145 -0.668 0.219 -1 l -29.438 0 l 0 -4 l 29.969 0 c 0.014 -0.331 0.031 -0.666 0.031 -1 l -30 0 l 0 -4 l 29.656 0 c -0.059 -0.337 -0.145 -0.668 -0.219 -1 l -29.438 0 l 0 -7 l 26.625 0 c -0.209 -0.341 -0.431 -0.671 -0.656 -1 l -37.938 0 z" opacity="0.1" fill="#000" fill-rule="evenodd" stroke="none" fill-opacity="0.533"/><path d="m 1.781 18 c -0.088 0.326 -0.145 0.668 -0.219 1 l 44.875 0 c -0.074 -0.332 -0.131 -0.674 -0.219 -1 l -44.44 0 z m -0.75 5 c -0.014 0.331 -0.031 0.666 -0.031 1 l 46 0 c 0 -0.334 -0.017 -0.669 -0.031 -1 l -45.938 0 z m 0.313 5 c 0.059 0.337 0.145 0.668 0.219 1 l 44.875 0 c 0.074 -0.332 0.16 -0.663 0.219 -1 l -45.31 0 z m 1.5 5 c 0.143 0.335 0.311 0.673 0.469 1 l 41.38 0 c 0.158 -0.327 0.326 -0.665 0.469 -1 l -42.31 0 z m 2.906 5 c 0.26 0.339 0.534 0.677 0.813 1 l 34.875 0 c 0.279 -0.323 0.552 -0.661 0.813 -1 l -36.5 0 z m 5.281 5 c 0.523 0.357 1.072 0.686 1.625 1 l 22.688 0 c 0.553 -0.314 1.102 -0.643 1.625 -1 l -25.938 0 z" fill="#3d95c1" fill-rule="evenodd" stroke="none" fill-opacity="0.533"/><path d="m 24 1 c -7.882 0 -14.824 3.957 -18.969 10 l 37.938 0 c -4.144 -6.04 -11.09 -10 -18.969 -10 z" fill="url(#linearGradient3103)" fill-rule="evenodd" stroke="none"/><path d="m 15,11 0,36.996 0.996,0 0,-36.996 M 15,11" fill="#d64936" fill-rule="evenodd" stroke="none" fill-opacity="0.533"/><g><path d="m 40.03 7.531 c 3.712 4.084 5.969 9.514 5.969 15.469 0 12.703 -10.297 23 -23 23 c -5.954 0 -11.384 -2.256 -15.469 -5.969 4.178 4.291 10.01 6.969 16.469 6.969 c 12.703 0 23 -10.298 23 -23 0 -6.462 -2.677 -12.291 -6.969 -16.469 z" opacity="0.1"/></g></svg>
